X:169
M:2/4
L:1/8
K:F
|: e/f/ | ge ce/f/\ge b2 | gecB | "tr"B2 A>G | A"tr"BcG | A"tr"Bcf | cBAG | F2 F :|

